X:1
T: An Arran Lilt
C:
R:Reel
I:speed 232
Q:232
K:G
M:4/4
L:1/8
|:((3ABc)|d3B G3A|B2 ((3cBA) B2d2|e2 ((3fed) g2B2|AG AB A2((3ABc)|
d3B G3A|B2 ((3cBA) B2d2|e2 ((3fed) g2B2|AG AB G2:|
|:d2|g2ge f2fd|e2ed B2d2|g2ge f2fd|e2ed B2d2|
g2ge f2fd|e2ed B2d2|ee ((3fed) g2B2|AF AB A2:|
